local/share/icons/dracula-icons-main/scalable/apps/com.github.artemanufrij.hashit.svg

<?xml version="1.0" encoding="UTF-8"?>
<svg xmlns="http://www.w3.org/2000/svg" xmlns:xlink="http://www.w3.org/1999/xlink" width="64" height="64" viewBox="0 0 64 64">
<path fill-rule="nonzero" fill="rgb(30.196078%, 30.196078%, 30.196078%)" fill-opacity="1" d="M 32 5 C 46.910156 5 59 17.089844 59 32 C 59 46.910156 46.910156 59 32 59 C 17.089844 59 5 46.910156 5 32 C 5 17.089844 17.089844 5 32 5 Z M 32 5 "/>
<path fill-rule="nonzero" fill="rgb(100%, 100%, 100%)" fill-opacity="1" d="M 35.253906 19.027344 L 35.277344 22.015625 L 38.410156 21.988281 L 38.386719 19 Z M 20.40625 20.597656 L 18.921875 27.703125 L 14.152344 27.742188 L 14.167969 29.621094 L 18.554688 29.582031 L 17.253906 36.011719 L 13.335938 36.042969 L 13.351562 37.921875 L 16.851562 37.890625 L 15.449219 44.996094 L 17.363281 44.980469 L 18.765625 37.875 L 25.078125 37.820312 L 23.644531 44.925781 L 25.558594 44.910156 L 27.03125 37.804688 L 31.953125 37.761719 L 31.9375 35.882812 L 27.414062 35.921875 L 28.714844 29.496094 L 32.769531 29.460938 L 32.753906 27.582031 L 29.082031 27.617188 L 30.550781 20.511719 L 28.636719 20.527344 L 27.167969 27.632812 L 20.851562 27.6875 L 22.324219 20.582031 Z M 44.585938 21.726562 L 43.699219 25.941406 L 41.402344 25.964844 L 41.421875 28.238281 L 43.597656 28.222656 L 43.707031 40.773438 C 43.730469 43.613281 44.996094 45.023438 47.5 45 C 48.582031 44.992188 49.636719 44.839844 50.664062 44.554688 L 50.644531 42.242188 C 49.859375 42.410156 49.253906 42.5 48.835938 42.5 C 48.105469 42.507812 47.589844 42.335938 47.285156 41.976562 C 46.992188 41.609375 46.839844 40.972656 46.832031 40.066406 L 46.730469 28.195312 L 50.210938 28.164062 L 50.191406 25.886719 L 46.710938 25.917969 L 46.675781 21.710938 Z M 35.3125 26.015625 L 35.476562 44.824219 L 38.609375 44.796875 L 38.445312 25.988281 Z M 20.519531 29.566406 L 26.785156 29.511719 L 25.480469 35.941406 L 19.183594 35.992188 Z M 20.519531 29.566406 "/>
</svg>

<svg id="Calculator" width="64" height="64" enable-background="new 0 0 1024 1024" image-rendering="optimizeSpeed" version="1.1" viewBox="0 0 64 64" xmlns="http://www.w3.org/2000/svg">
 <rect x="5" y="5" width="54" height="54" rx="27" ry="27" fill="#4d4d4d" stroke-width="3.6445"/>
 <path d="m35.253 19.027 0.02577 2.9885 3.1322-0.02701-0.02577-2.9885zm-14.846 1.5706-1.4868 7.1054-4.7674 0.04112 0.01619 1.8772 4.3855-0.03784-1.3016 6.4271-3.9162 0.03374 0.01619 1.8772 3.4978-0.03015-1.4012 7.1065 1.9154-0.01653 1.3994-7.1064 6.3154-0.05451-1.434 7.1068 1.9135-0.01654 1.4704-7.1071 4.9239-0.04249-0.0163-1.8771-4.5237 0.03903 1.3016-6.4271 4.0544-0.035-0.0163-1.8771-3.6724 0.03168 1.4704-7.1053-1.9135 0.01653-1.4704 7.1052-6.3154 0.05446 1.4704-7.1052zm24.18 1.1303-0.88593 4.2152-2.2973 0.0198 0.01956 2.2773 2.1754-0.01863 0.10825 12.551c0.0245 2.8394 1.2892 4.2491 3.7947 4.2275 1.0788-0.0093 2.1332-0.15861 3.1632-0.44566l-0.02002-2.3119c-0.78735 0.16883-1.3902 0.25575-1.8077 0.25937-0.73076 0.0062-1.2482-0.16636-1.5526-0.52503-0.29316-0.36865-0.44343-1.0058-0.45123-1.9098l-0.1024-11.872 3.4796-0.03004-0.01956-2.2773-3.4796 0.03004-0.03627-4.2072zm-9.2731 4.2876 0.16224 18.81 3.1322-0.02703-0.16224-18.81zm-14.793 3.5511 6.2626-0.05402-1.3016 6.4271-6.299 0.05432z" fill="#fff"/>
</svg>
